X:1
T:Deh dolc'anima mia
T:Antonio Cifra
T:Source : Li diversi Scherzi a uno, a due et tre voci---Libro secundo---Roma---G.B.Robletti---1613. Editor : André Vierendeels (11/11/16).
T:Notes : Original clefs : C1, F4 Figures in BC are notated in original print
T:Romano
T:Deh dolc'anima mia
T:©
T:©
T:©
T:©
C:Antonio Cifra
Z:©
%%score 1 2
L:1/8
Q:1/4=99
M:4/4
K:C
V:1 treble nm="Soprano" snm="S"
V:2 bass nm="MusicXML Part"
V:1
 z4 A4- | A2 A2 c4- | c2 BB d4 | B8 | z2 A3 E E2 | F2 ^C2 DE/F/ EF/G/ | E8 | z2 ^cc d2 AA | %8
w: Deh|_ dolc' a-|* ni- ma mi-|a|par- ti'e ti|con- so- * * * * * *|la|ch'in- fi ni- t'e la|
 B2 ^G2 A2 ^FF | G2 C/D/E/D/ D4 | E8 | z2 ^c4 cc | d6 B2 | G2 A_B A2 TG2 | A8 | z Bcd e4- | %16
w: schie- ra de- gl'in- fe-|li- ci'a- * * * man-|ti,|vi- ne ben|al- tr'in|pian- * * * *|ti,|si co- me tu|
 e2 c/B/c/d/ B4 | A8 | z4 c4- | c2 _BA A4- | A2 G2 A3 E | ^F2 F2 G4- | G4 ^F4 | GBdc BcBA | %24
w: _ cor _ _ _ mi-|o,|o-|* gni fe- ritt|_ ha se- co'il|suo do- lo-||re, ne sei ti so- lo'à la- gri-|
 G4 z ced | cdcB AB/c/ d2- | d c/B/ c/B/c/d/ B4 | A8 | z4 e4- | e2 dc c3 B | d2 A2 BB c2- | %31
w: mar, ne sei tu|so- lo'à la- gri- mar _ _ _|_ d'A- * * * * * mo-|re,|o|_ gni fe- rit' ha|se- co'il suo do- lo-|
 c2 B2 cEGF | EFED C4 | z AcB A_BAG | F/G/A/G/ A/F/G/A/ D/E/F/G/ A/B/c/B/ | %35
w: * * re, ne sei tu|so- lo'à la- gri- mar,|ne sei tu so- lo'à la- gri-|mar _ _ _ _ _ _ _ _ _ _ _ _ _ _ _|
 ^G/A/B/A/ B/G/A/B/ E/F/G/A/ B/c/d/e/- | e c/B/ c/B/d/c/ B4 | A8 |] %38
w: _ _ _ _ _ _ _ _ _ _ _ _ _ _ _ _|* d'A- * * * * * mo-|re.|
V:2
"^BC" A,,8 | A,8 | E,4 F,4 | E,8 | ^C,8 | D,2 A,,2 _B,,4 | A,,8 | A,4 ^F,4 | G,2 E,2 ^C,2 D,2 | %9
 B,,2 E,2 G,4 | C,8 | A,,8 | ^F,4 G,4 |"^7  6" E,8 | D,8 | G,2 E,D, C,2 B,,A,, |"^3 4 3" E,8 | %17
 A,,8 | F,8 | E,4 F,4 |"^4 3" C,8 |"^6" D,4 B,,4 |"^7 6" A,,8 | G,,4 G,E,G,F, | E,F,E,D, C,3 B,, | %25
 A,,4 F,4 | E,8 | A,,8 | A,8 | ^G,4 A,2 E,2 | ^F,4 G,2 E,2 | D,4 C,4- | C,A,,C,B,, A,,_B,,A,,G,, | %33
 F,,4 F,D,F,E, | D,8 | E,8- | E,8 | A,,8 |] %38

